src/symbolic/devices/laptop-symbolic.svg

<?xml version="1.0" encoding="UTF-8" standalone="no"?>
<svg
   xmlns:dc="http://purl.org/dc/elements/1.1/"
   xmlns:cc="http://creativecommons.org/ns#"
   xmlns:rdf="http://www.w3.org/1999/02/22-rdf-syntax-ns#"
   xmlns:svg="http://www.w3.org/2000/svg"
   xmlns="http://www.w3.org/2000/svg"
   xmlns:sodipodi="http://sodipodi.sourceforge.net/DTD/sodipodi-0.dtd"
   xmlns:inkscape="http://www.inkscape.org/namespaces/inkscape"
   width="16"
   height="16"
   version="1.1"
   id="svg4"
   sodipodi:docname="laptop-symbolic.svg"
   inkscape:version="0.92.4 (5da689c313, 2019-01-14)">
  <metadata
     id="metadata10">
    <rdf:RDF>
      <cc:Work
         rdf:about="">
        <dc:format>image/svg+xml</dc:format>
        <dc:type
           rdf:resource="http://purl.org/dc/dcmitype/StillImage" />
      </cc:Work>
    </rdf:RDF>
  </metadata>
  <defs
     id="defs8" />
  <sodipodi:namedview
     pagecolor="#ffffff"
     bordercolor="#666666"
     borderopacity="1"
     objecttolerance="10"
     gridtolerance="10"
     guidetolerance="10"
     inkscape:pageopacity="0"
     inkscape:pageshadow="2"
     inkscape:window-width="1366"
     inkscape:window-height="710"
     id="namedview6"
     showgrid="true"
     inkscape:zoom="14.75"
     inkscape:cx="1.0626733"
     inkscape:cy="13.189352"
     inkscape:window-x="0"
     inkscape:window-y="0"
     inkscape:window-maximized="1"
     inkscape:current-layer="svg4">
    <inkscape:grid
       type="xygrid"
       id="grid823" />
  </sodipodi:namedview>
  <path
     style="opacity:1;fill:#666666;fill-opacity:1;stroke:none;stroke-width:1.00157475;stroke-linecap:round;stroke-linejoin:miter;stroke-miterlimit:4;stroke-dasharray:none;stroke-opacity:1;paint-order:stroke markers fill"
     d="M 1.0019531,2 C 0.44708335,2 0,2.4874332 0,3.0917969 V 12.908203 C 0,13.512567 0.44708335,14 1.0019531,14 H 14.998047 C 15.552917,14 16,13.512567 16,12.908203 V 3.0917969 C 16,2.4874332 15.552917,2 14.998047,2 Z M 1.5117188,3 H 14.488281 C 14.771911,3 15,3.2205551 15,3.4941406 V 12.505859 C 15,12.779445 14.771911,13 14.488281,13 H 1.5117188 C 1.2280893,13 1,12.779445 1,12.505859 V 3.4941406 C 1,3.2205551 1.2280893,3 1.5117188,3 Z"
     id="rect825"
     inkscape:connector-curvature="0" />
  <rect
     style="opacity:1;fill:#666666;fill-opacity:1;stroke:none;stroke-width:1.00157475;stroke-linecap:round;stroke-linejoin:miter;stroke-miterlimit:4;stroke-dasharray:none;stroke-opacity:1;paint-order:stroke markers fill"
     id="rect831"
     width="16"
     height="1"
     x="0"
     y="14"
     rx="0"
     ry="0" />
</svg>

<svg xmlns="http://www.w3.org/2000/svg" width="16" height="16"><path d="M1.002 2C.447 2 0 2.487 0 3.092v9.816C0 13.513.447 14 1.002 14h13.996c.555 0 1.002-.487 1.002-1.092V3.092C16 2.487 15.553 2 14.998 2zm.51 1h12.976c.284 0 .512.22.512.494v9.012a.502.502 0 0 1-.512.494H1.512A.502.502 0 0 1 1 12.506V3.494C1 3.221 1.228 3 1.512 3z" fill="#5d656b" paint-order="stroke markers fill"/><rect width="16" height="1" y="14" rx="0" ry="0" fill="#5d656b" paint-order="stroke markers fill"/></svg>
